X:1
T:Title
L:1/8
M:12/8
K:Ab
V:1 treble nm="Grand Piano"
V:1
 z6 z3 z2[Q:1/4=140] C | c3 B2 =A B3 _A2 G | A3- A2 G F3- F2 F | G3 F2 E D3 E2 D | C6- C3- C2 C | %5
 c3 B2 =A B3 _A2 G | A3- A2 G F3- F2 F | G3 A2 B e3 d2 B | c6- c3- c2 B | c3 c2 c c3 c2 B | %10
 e3- e2 f c3- c2 G | G6 A3- A2 B | c6- c3- c2 F | A3 A2 A A3 B2 c | G6 G3- G2 F | G3 F2 E F3 E2 D | %16
 C6- C3- C2 C | F3 F2 G F3 =E2 F | G3- G2 A G3 F2 G | A3 A2 B A3 G2 F | c6- c3- c2 c | %21
 c6 B3- B2 e | c6- c3- c2 G | G3 F2 E D2 C B,2 E | C12 |] %25

